X:323
T:You'll Come Home with Me  
B:CRE2.008 (Tiocfaidh tÃÂÃÂÃÂÃÂº Abhaile Liom)
F:file ID: cre.2/323youll
N:Or "Will You Come Home with Me?"
Q:160
L:1/8
M:6/8
R:jig
K:G
F2F G2G|A2B cAG|A2A ABG|A2A ABG|
"5"FEF G3|Add cAF|G2G GAF|1 G2G GAG:|\
[2 GFG G2||
A|"9"fed gef|fed cAG|A2A ABG|A2A ABd|
"13"gef fed|ef/g/e dBA|G2G GBA|GGG GAd|
"17"fed efg|fed cAG|A2A ABG|A2A ABG|
"21"fed gfe|fed cAF|G2G GAF|GFG G2||
e|"25"f3 gfg|a2b [ac']ag|a2a abg|aga abg|
"29"fef gfg|a2b [ac']af|g2g a2f|g2g gag||
"33"f2d g2e|fed cAF|A2A ABG|AAA ABG|
"37"fed gfe|fed cAF|G2G GAF|GFG HG3|]

%%%

